X:700
T:Eight Men of Moidart
S:As played by Adam Rennie on a 78rpm
Z:Nigel Gatherer
M:2/4
L:1/8
K:A
g    | a/g/f/e/ ae | c2 Ae/d/ | c/d/e Ae | cB       Bg |
       a/g/f/e/ ae | c2 Ae/d/ | c/d/e Bd | cA       A :|
e/d/ | cA       eA | fA eA    | cA    eA | f/e/d/c/ B
e/d/ | cA       eA | fA eA    | c/d/e Bd | cA       A :|
<end>
<start>
